Arcticons/scalable/apps/projectm.svg

<svg viewBox="0 0 48 48" xmlns="http://www.w3.org/2000/svg">
 <defs>
  <style>.a,.c{fill:none;stroke-linecap:round;stroke-linejoin:round;}.a{stroke:#fffffc;}.b{fill:#fffffc;}.c{stroke:#fff;}</style>
 </defs>
 <line class="a" x1="8.63" x2="8.63" y1="13.69" y2="20.91"/>
 <path class="a" d="m8.63 16.67a1.81 1.81 0 0 0 1.81 1.8 1.81 1.81 0 0 0 1.8-1.8v-1.18a1.81 1.81 0 0 0-1.8-1.8 1.81 1.81 0 0 0-1.81 1.8"/>
 <path class="a" d="m35.59 17.57a1.74 1.74 0 0 1-1.53 0.9 1.81 1.81 0 0 1-1.81-1.8v-1.18a1.81 1.81 0 0 1 1.81-1.8 1.74 1.74 0 0 1 1.53 0.9"/>
 <path class="a" d="m29.76 17.57a1.76 1.76 0 0 1-1.54 0.9 1.81 1.81 0 0 1-1.8-1.8v-1.18a1.81 1.81 0 0 1 1.8-1.8 1.81 1.81 0 0 1 1.78 1.8v0.64h-3.58"/>
 <path class="b" d="M24.93,11.52a.74.74,0,0,1-.75.75h0a.75.75,0,0,1-.75-.75h0a.76.76,0,0,1,.75-.75h0a.75.75,0,0,1,.75.75Z"/>
 <path class="a" d="m24.18 13.69v5.41a1.81 1.81 0 0 1-1.8 1.81 1.78 1.78 0 0 1-1.27-0.54"/>
 <line class="a" x1="37.47" x2="39.37" y1="13.69" y2="13.69"/>
 <line class="a" x1="38.47" x2="38.47" y1="12.15" y2="18.47"/>
 <line class="a" x1="14.69" x2="14.69" y1="13.69" y2="18.47"/>
 <path class="a" d="m14.69 15.49a1.81 1.81 0 0 1 1.8-1.8"/>
 <path class="a" d="m20.2 18.47a1.81 1.81 0 0 1-1.8-1.8v-1.18a1.81 1.81 0 0 1 1.8-1.8 1.81 1.81 0 0 1 1.8 1.8v1.18a1.81 1.81 0 0 1-1.8 1.8z"/>
 <polyline class="a" points="17.75 37.23 17.75 24.72 24 37.23 30.25 24.72 30.25 37.23"/>
 <path class="c" d="m40.5 5.5h-33a2 2 0 0 0-2 2v33a2 2 0 0 0 2 2h33a2 2 0 0 0 2-2v-33a2 2 0 0 0-2-2z"/>
</svg>

<svg xmlns="http://www.w3.org/2000/svg" viewBox="0 0 48 48"><defs><style>.a,.c{fill:none;stroke-linecap:round;stroke-linejoin:round;}.a{stroke:#fffffc;}.b{fill:#fffffc;}.c{stroke:#fff;}</style></defs><line class="a" x1="8.63" y1="13.69" x2="8.63" y2="20.91"/><path class="a" d="M8.63,16.67a1.81,1.81,0,0,0,1.81,1.8h0a1.81,1.81,0,0,0,1.8-1.8V15.49a1.81,1.81,0,0,0-1.8-1.8h0a1.81,1.81,0,0,0-1.81,1.8"/><path class="a" d="M35.59,17.57a1.74,1.74,0,0,1-1.53.9h0a1.81,1.81,0,0,1-1.81-1.8V15.49a1.81,1.81,0,0,1,1.81-1.8h0a1.74,1.74,0,0,1,1.53.9"/><path class="a" d="M29.76,17.57a1.76,1.76,0,0,1-1.54.9h0a1.81,1.81,0,0,1-1.8-1.8V15.49a1.81,1.81,0,0,1,1.8-1.8h0A1.81,1.81,0,0,1,30,15.49v.64H26.42"/><path class="b" d="M24.93,11.52a.74.74,0,0,1-.75.75h0a.75.75,0,0,1-.75-.75h0a.76.76,0,0,1,.75-.75h0a.75.75,0,0,1,.75.75Z"/><path class="a" d="M24.18,13.69V19.1a1.81,1.81,0,0,1-1.8,1.81h0a1.78,1.78,0,0,1-1.27-.54"/><line class="a" x1="37.47" y1="13.69" x2="39.37" y2="13.69"/><line class="a" x1="38.47" y1="12.15" x2="38.47" y2="18.47"/><line class="a" x1="14.69" y1="13.69" x2="14.69" y2="18.47"/><path class="a" d="M14.69,15.49a1.81,1.81,0,0,1,1.8-1.8h0"/><path class="a" d="M20.2,18.47h0a1.81,1.81,0,0,1-1.8-1.8V15.49a1.81,1.81,0,0,1,1.8-1.8h0A1.81,1.81,0,0,1,22,15.49v1.18A1.81,1.81,0,0,1,20.2,18.47Z"/><polyline class="a" points="17.75 37.23 17.75 24.72 24 37.23 30.25 24.72 30.25 37.23"/><path class="c" d="M40.5,5.5H7.5a2,2,0,0,0-2,2v33a2,2,0,0,0,2,2h33a2,2,0,0,0,2-2V7.5A2,2,0,0,0,40.5,5.5Z"/></svg>
